polaris-icons/icons/new-icons/LandingPageMajor.svg

<svg width="20" height="20" viewBox="0 0 20 20" fill="none" xmlns="http://www.w3.org/2000/svg">
<path fill-rule="evenodd" clip-rule="evenodd" d="M12 10C12 9.63997 11.9908 9.28885 11.9727 8.94864C11.3382 8.98327 10.6761 9.00023 10 9.00023C9.32391 9.00023 8.66186 8.98327 8.02728 8.94864C8.00922 9.28885 8 9.63997 8 10C8 10.5016 8.0179 10.986 8.05267 11.4476C8.66874 11.4824 9.32197 11.5002 10 11.5002C10.4143 11.5002 10.75 11.836 10.75 12.2502C10.75 12.6644 10.4143 13.0002 10 13.0002C9.396 13.0002 8.80691 12.9866 8.24113 12.9595C8.34657 13.542 8.48498 14.0634 8.65319 14.5071C9.09339 15.6681 9.60385 16 10 16C10.4142 16 10.75 16.3358 10.75 16.75C10.75 17.1642 10.4142 17.5 10 17.5C5.85786 17.5 2.5 14.1421 2.5 10C2.5 5.85786 5.85786 2.5 10 2.5C14.1421 2.5 17.5 5.85786 17.5 10C17.5 10.4142 17.1642 10.75 16.75 10.75C16.3358 10.75 16 10.4142 16 10C16 9.44988 15.926 8.91706 15.7873 8.41094C15.1324 8.59302 14.3441 8.73113 13.4684 8.82771C13.4895 9.21109 13.5 9.60282 13.5 10C13.5 10.4142 13.1642 10.75 12.75 10.75C12.3358 10.75 12 10.4142 12 10ZM8.65319 5.49292C9.09339 4.33189 9.60385 4 10 4C10.3962 4 10.9066 4.33189 11.3468 5.49292C11.5539 6.03912 11.7158 6.70318 11.8267 7.45416C11.2498 7.48446 10.6379 7.50023 10 7.50023C9.36211 7.50023 8.75027 7.48446 8.17334 7.45415C8.28416 6.70318 8.4461 6.03912 8.65319 5.49292ZM7.25062 4.96114C6.99011 5.64823 6.79919 6.45388 6.6751 7.33435C5.95115 7.25399 5.31563 7.14605 4.79455 7.01412C5.39758 5.96508 6.3086 5.11559 7.4042 4.58904C7.34929 4.71142 7.29814 4.83579 7.25062 4.96114ZM6.53163 8.8277C5.65591 8.73112 4.86761 8.59301 4.21269 8.41092C4.07404 8.91704 4 9.44988 4 10C4 10.2637 4.01701 10.5234 4.04999 10.7781C4.54266 10.9772 5.2788 11.1521 6.22575 11.2793C6.32867 11.2931 6.43354 11.3063 6.54026 11.3189C6.51333 10.889 6.5 10.448 6.5 10C6.5 9.60282 6.51048 9.21109 6.53163 8.8277ZM13.3249 7.33435C14.0489 7.254 14.6844 7.14606 15.2055 7.01413C14.6024 5.96509 13.6914 5.11559 12.5958 4.58904C12.6507 4.71142 12.7019 4.83579 12.7494 4.96114C13.0099 5.64823 13.2008 6.45388 13.3249 7.33435ZM4.54244 12.4965C5.12617 13.7705 6.14286 14.8048 7.4042 15.411C7.34929 15.2886 7.29814 15.1642 7.25062 15.0389C7.00797 14.3989 6.8257 13.656 6.70157 12.8457C6.46976 12.8219 6.24431 12.7953 6.02598 12.7659C5.49736 12.6949 4.99714 12.6061 4.54244 12.4965Z" fill="#4A4A4A"/>
<path d="M14.8107 13.75L17.2803 16.2197C17.5732 16.5126 17.5732 16.9874 17.2803 17.2803C16.9874 17.5732 16.5126 17.5732 16.2197 17.2803L13.75 14.8107V16C13.75 16.4142 13.4142 16.75 13 16.75C12.5858 16.75 12.25 16.4142 12.25 16V13C12.25 12.5858 12.5858 12.25 13 12.25H16C16.4142 12.25 16.75 12.5858 16.75 13C16.75 13.4142 16.4142 13.75 16 13.75H14.8107Z" fill="#4A4A4A"/>
</svg>

<svg viewBox="0 0 20 20" xmlns="http://www.w3.org/2000/svg"><path fill-rule="evenodd" d="M12 10c0-.36-.01-.711-.027-1.051-.635.034-1.297.051-1.973.051-.676 0-1.338-.017-1.973-.051a19.856 19.856 0 0 0 .026 2.499c.616.034 1.269.052 1.947.052a.75.75 0 1 1 0 1.5c-.604 0-1.193-.013-1.759-.04.106.582.244 1.103.412 1.547.44 1.161.95 1.493 1.347 1.493a.75.75 0 0 1 0 1.5 7.5 7.5 0 1 1 7.5-7.5.75.75 0 0 1-1.5 0c0-.55-.074-1.083-.213-1.59-.655.183-1.443.321-2.319.418.021.383.032.775.032 1.172a.75.75 0 0 1-1.5 0Zm-3.347-4.507c.44-1.161.95-1.493 1.347-1.493.396 0 .907.332 1.347 1.493.207.546.369 1.21.48 1.961-.577.03-1.19.046-1.827.046-.638 0-1.25-.016-1.827-.046.111-.75.273-1.415.48-1.961Zm-1.402-.532c-.26.687-.452 1.493-.576 2.373-.724-.08-1.36-.188-1.88-.32a6.026 6.026 0 0 1 2.61-2.425 6.784 6.784 0 0 0-.154.372Zm-.72 3.867c-.875-.097-1.663-.235-2.318-.417a6.007 6.007 0 0 0-.163 2.367c.493.2 1.229.374 2.176.501l.314.04a21.13 21.13 0 0 1-.008-2.491Zm6.794-1.494c.724-.08 1.36-.188 1.88-.32a6.027 6.027 0 0 0-2.61-2.425c.056.122.107.247.154.372.26.687.452 1.493.576 2.373Zm-8.783 5.162a6.024 6.024 0 0 0 2.862 2.915 6.807 6.807 0 0 1-.153-.372c-.243-.64-.425-1.383-.55-2.193-.231-.024-.457-.05-.675-.08a14.799 14.799 0 0 1-1.484-.27Z" fill="#5C5F62"/><path d="m14.81 13.75 2.47 2.47a.75.75 0 1 1-1.06 1.06l-2.47-2.47v1.19a.75.75 0 0 1-1.5 0v-3a.75.75 0 0 1 .75-.75h3a.75.75 0 0 1 0 1.5h-1.19Z" fill="#5C5F62"/></svg>
